packages/ui/assets/svg/partner_reef.svg

<svg class="partner-size" width="87" height="66" viewBox="0 0 87 66" fill="none" xmlns="http://www.w3.org/2000/svg">
<g id="partner_reef">
<path class="fill" d="M50.2099 39.347C50.3621 39.952 50.7428 40.183 51.243 40.293C52.0913 40.469 52.9177 40.304 53.7225 40.073C55.6583 39.512 57.42 38.544 59.1709 37.565C59.769 37.257 60.2257 36.74 60.465 36.113C60.8674 35.123 61.3567 34.155 61.8352 33.121C61.5634 33.11 61.3676 33.099 61.1719 33.077C60.8565 33.077 60.5411 33.055 60.2257 33.011C59.8125 32.934 59.4971 32.714 59.3993 32.263C59.3123 31.834 59.5189 31.515 59.8451 31.295C60.0626 31.13 60.3236 31.031 60.5846 30.998C61.0957 30.932 61.6286 30.943 62.1398 30.921C62.4225 30.91 62.6726 30.921 62.9663 30.921C63.3469 30.206 63.7166 29.491 64.119 28.809C65.2065 26.972 66.468 25.311 68.208 24.068C69.252 23.32 70.4809 22.88 71.7641 22.803C72.9713 22.715 73.8521 23.309 74.2654 24.486C74.6134 25.476 74.5264 26.488 74.2436 27.478C74.0479 28.193 73.0583 28.534 72.4384 28.149C72.1121 27.94 72.123 27.643 72.123 27.313C72.1556 26.983 72.1448 26.642 72.1013 26.301C71.9816 25.718 71.6445 25.443 71.0681 25.564C70.6766 25.641 70.3069 25.795 69.9806 26.026C68.5778 26.972 67.599 28.325 66.7508 29.766C66.555 30.107 66.3919 30.47 66.1526 30.932H67.1749C68.556 30.954 69.9263 30.965 71.3074 30.998C71.4705 30.998 71.6336 31.02 71.7968 31.064C72.1774 31.174 72.4928 31.361 72.5363 31.812C72.6015 32.252 72.3623 32.67 71.9599 32.846C71.6336 32.978 71.2856 33.044 70.9268 33.066C69.1868 33.121 67.4576 33.143 65.7285 33.165H65.0325C64.8476 33.528 64.6519 33.869 64.4888 34.221C62.6509 38.115 60.8239 41.998 58.9751 45.892C58.7794 46.288 58.5401 46.662 58.2574 47.003C57.8876 47.443 57.3874 47.74 56.8219 47.839C55.854 48.026 55.2776 47.388 55.6365 46.475C56.0171 45.518 56.4847 44.583 56.9089 43.648C57.3547 42.658 57.8224 41.657 58.3444 40.535C57.7898 40.832 57.3548 41.074 56.9306 41.305C55.419 42.108 53.8095 42.757 52.113 43.032C51.3953 43.153 50.6558 43.175 49.9271 43.098C48.6439 42.944 47.6978 42.196 47.0779 41.052C46.9583 40.854 46.8604 40.656 46.7299 40.414C46.3275 40.645 45.9578 40.876 45.5771 41.074C43.9241 41.998 42.195 42.724 40.3245 43.032C39.6285 43.164 38.9107 43.186 38.2039 43.109C36.4421 42.867 35.3981 41.734 34.8653 40.073C34.3759 38.599 34.6042 37.18 35.2785 35.838C36.5835 33.264 38.5519 31.438 41.3468 30.635C42.195 30.404 43.0867 30.327 43.9676 30.404C45.414 30.525 46.2949 31.581 46.197 33.066C46.1426 33.957 45.7729 34.804 45.1639 35.453C44.0437 36.685 42.6191 37.488 41.151 38.203C40.2701 38.621 39.3457 38.995 38.4214 39.391C38.4866 39.952 38.8781 40.194 39.3675 40.326C40.0635 40.502 40.7377 40.403 41.412 40.249C43.1955 39.831 44.8268 39.028 46.4363 38.115C46.4906 37.873 46.5124 37.62 46.5776 37.378C47.3932 33.979 51.0255 30.272 55.3755 30.36C57.9529 30.415 58.4096 32.538 57.8333 34.056C57.5287 34.804 57.0503 35.464 56.4412 35.981C55.2559 37.037 53.9074 37.763 52.4936 38.401C51.7541 38.709 51.0146 38.995 50.2099 39.347ZM50.0468 37.213C51.6345 36.366 53.157 35.398 54.6034 34.32C54.7774 34.177 54.9296 33.99 55.0275 33.781C55.3755 33.121 55.1036 32.659 54.3641 32.659C53.5159 32.659 52.7981 33.033 52.1782 33.605C51.1234 34.584 50.4926 35.838 50.0468 37.213ZM38.1495 37.246C38.2474 37.224 38.3453 37.191 38.4431 37.158C39.8134 36.278 41.1945 35.409 42.5539 34.507C42.8257 34.309 43.0432 34.056 43.2064 33.759C43.5544 33.121 43.2825 32.67 42.5647 32.659C41.8035 32.659 41.0749 32.945 40.5094 33.462C39.3675 34.441 38.7585 35.761 38.1495 37.246Z" fill="black"></path>
<path class="fill" d="M23.4356 34.309C23.4139 34.375 23.403 34.43 23.3921 34.496C23.7619 36.333 24.4361 38.016 25.6868 39.413C26.1218 39.919 26.7525 40.194 27.405 40.183C29.3843 40.194 30.9938 39.369 32.3096 37.917C32.5271 37.664 32.7555 37.422 33.0056 37.202C33.321 36.96 33.7016 36.883 34.0605 37.114C34.4194 37.345 34.4738 37.675 34.4303 38.06C34.365 38.588 34.1257 39.083 33.7669 39.468C32.2661 41.063 30.5261 42.317 28.362 42.856C26.3936 43.351 24.7841 42.801 23.4574 41.305C22.5221 40.216 21.7826 38.984 21.2498 37.642C20.88 36.784 20.5864 35.904 20.2601 35.046C20.1949 34.881 20.1296 34.705 20.0209 34.397C19.8578 34.815 19.7381 35.101 19.6294 35.387C19.0313 36.993 18.4658 38.599 17.835 40.183C17.4979 41.074 16.9868 41.888 16.3451 42.592C15.8449 43.131 15.2576 43.45 14.5073 43.362C13.7134 43.252 13.1805 42.713 13.1044 41.899C13.0391 41.261 13.1696 40.623 13.485 40.062C14.2789 38.599 15.051 37.125 15.8449 35.662C17.0955 33.363 18.3353 31.064 19.6294 28.798C20.2384 27.808 20.8909 26.862 21.5978 25.949C21.8588 25.63 22.1741 25.344 22.5113 25.113C22.8158 24.86 23.2508 24.827 23.577 25.047C23.9033 25.223 24.0773 25.597 24.0011 25.971C23.9576 26.411 23.8598 26.84 23.7075 27.258C23.1746 28.589 22.5874 29.898 22.0328 31.207C21.9784 31.317 21.9349 31.438 21.8479 31.603C22.3808 31.691 22.9354 31.669 23.4574 31.537C26.2958 31.009 28.8623 28.336 29.2973 25.454C29.5909 23.584 28.7644 22.088 27.0353 21.34C26.187 20.988 25.2735 20.823 24.36 20.845C23.229 20.845 22.1306 20.911 21.0323 21.241C19.3358 21.78 18.096 22.847 17.1934 24.398C16.791 25.091 16.3886 25.773 15.9428 26.433C15.6491 26.928 15.1706 27.28 14.616 27.412C13.6155 27.643 12.4519 27.115 12.5498 25.707C12.615 24.794 12.9956 24.002 13.5176 23.276C14.6921 21.626 16.2473 20.482 18.0308 19.635C20.2493 18.568 22.6961 18.084 25.143 18.227C26.9483 18.326 28.6448 18.777 30.1781 19.767C33.1905 21.725 33.8321 25.476 32.3205 28.292C31.2656 30.283 29.6235 31.647 27.7095 32.714C26.3828 33.44 24.9364 33.99 23.4356 34.309Z" fill="black"></path>
<path class="fill" d="M62.3681 40.865C62.3138 39.71 63.2599 38.566 64.7171 38.445C65.4893 38.379 66.3266 39.138 66.4245 39.93C66.5768 41.283 65.8699 42.548 64.3583 42.878C63.5426 43.043 62.5204 42.229 62.4008 41.393C62.3681 41.206 62.379 41.041 62.3681 40.865Z" fill="black"></path>
</g>
</svg>

<svg class="partner-size" width="87" height="66" viewBox="0 0 87 66" fill="none" xmlns="http://www.w3.org/2000/svg"><path class="fill" d="M50.21 39.347c.152.605.533.836 1.033.946.848.176 1.675.011 2.48-.22 1.935-.561 3.697-1.529 5.448-2.508a2.717 2.717 0 0 0 1.294-1.452c.402-.99.892-1.958 1.37-2.992a9.136 9.136 0 0 1-.663-.044 6.84 6.84 0 0 1-.946-.066c-.413-.077-.729-.297-.827-.748-.087-.429.12-.748.446-.968.218-.165.479-.264.74-.297.51-.066 1.044-.055 1.555-.077.282-.011.533 0 .826 0 .38-.715.75-1.43 1.153-2.112 1.088-1.837 2.349-3.498 4.089-4.741a6.8 6.8 0 0 1 3.556-1.265c1.207-.088 2.088.506 2.501 1.683.348.99.261 2.002-.021 2.992-.196.715-1.186 1.056-1.806.671-.326-.209-.315-.506-.315-.836.033-.33.022-.671-.022-1.012-.12-.583-.457-.858-1.033-.737a2.814 2.814 0 0 0-1.087.462c-1.403.946-2.382 2.299-3.23 3.74-.196.341-.36.704-.598 1.166h1.022c1.381.022 2.751.033 4.132.066.163 0 .327.022.49.066.38.11.696.297.74.748a.97.97 0 0 1-.577 1.034 3.273 3.273 0 0 1-1.033.22c-1.74.055-3.47.077-5.199.099h-.695c-.185.363-.381.704-.544 1.056-1.838 3.894-3.665 7.777-5.514 11.671-.196.396-.435.77-.718 1.111-.37.44-.87.737-1.435.836-.968.187-1.544-.451-1.186-1.364.381-.957.849-1.892 1.273-2.827.446-.99.913-1.991 1.435-3.113-.554.297-.99.539-1.413.77-1.512.803-3.121 1.452-4.818 1.727a8.079 8.079 0 0 1-2.186.066c-1.283-.154-2.23-.902-2.85-2.046-.119-.198-.217-.396-.347-.638-.402.231-.772.462-1.153.66-1.653.924-3.382 1.65-5.252 1.958a7.212 7.212 0 0 1-2.121.077c-1.762-.242-2.806-1.375-3.339-3.036-.49-1.474-.26-2.893.413-4.235 1.306-2.574 3.274-4.4 6.069-5.203a7.509 7.509 0 0 1 2.62-.231c1.447.121 2.328 1.177 2.23 2.662a3.84 3.84 0 0 1-1.033 2.387c-1.12 1.232-2.545 2.035-4.013 2.75-.88.418-1.805.792-2.73 1.188.066.561.457.803.947.935.695.176 1.37.077 2.044-.077 1.784-.418 3.415-1.221 5.024-2.134.055-.242.076-.495.142-.737.815-3.399 4.447-7.106 8.797-7.018 2.578.055 3.035 2.178 2.458 3.696a4.995 4.995 0 0 1-1.392 1.925c-1.185 1.056-2.534 1.782-3.947 2.42-.74.308-1.48.594-2.284.946Zm-.163-2.134a35.916 35.916 0 0 0 4.556-2.893c.174-.143.327-.33.425-.539.348-.66.076-1.122-.664-1.122-.848 0-1.566.374-2.186.946-1.055.979-1.685 2.233-2.131 3.608Zm-11.897.033c.097-.022.195-.055.293-.088 1.37-.88 2.752-1.749 4.11-2.651.273-.198.49-.451.653-.748.348-.638.076-1.089-.641-1.1a3.04 3.04 0 0 0-2.056.803c-1.142.979-1.75 2.299-2.36 3.784ZM23.436 34.309a1.17 1.17 0 0 0-.044.187c.37 1.837 1.044 3.52 2.295 4.917a2.212 2.212 0 0 0 1.718.77c1.98.011 3.589-.814 4.905-2.266.217-.253.445-.495.696-.715.315-.242.696-.319 1.054-.088.36.231.414.561.37.946a2.535 2.535 0 0 1-.663 1.408c-1.5 1.595-3.24 2.849-5.405 3.388-1.968.495-3.578-.055-4.905-1.551a12.916 12.916 0 0 1-2.207-3.663c-.37-.858-.664-1.738-.99-2.596-.065-.165-.13-.341-.24-.649-.162.418-.282.704-.39.99-.599 1.606-1.164 3.212-1.795 4.796a7.55 7.55 0 0 1-1.49 2.409c-.5.539-1.087.858-1.838.77-.794-.11-1.326-.649-1.403-1.463a3.093 3.093 0 0 1 .381-1.837c.794-1.463 1.566-2.937 2.36-4.4 1.25-2.299 2.49-4.598 3.784-6.864a32.177 32.177 0 0 1 1.969-2.849c.26-.319.576-.605.913-.836a.891.891 0 0 1 1.066-.066c.326.176.5.55.424.924-.043.44-.141.869-.294 1.287-.532 1.331-1.12 2.64-1.674 3.949-.055.11-.098.231-.185.396a3.968 3.968 0 0 0 1.61-.066c2.838-.528 5.404-3.201 5.84-6.083.293-1.87-.534-3.366-2.263-4.114a6.57 6.57 0 0 0-2.675-.495c-1.131 0-2.23.066-3.328.396-1.696.539-2.936 1.606-3.839 3.157a35.063 35.063 0 0 1-1.25 2.035 2.111 2.111 0 0 1-1.327.979c-1 .231-2.164-.297-2.066-1.705.065-.913.446-1.705.968-2.431 1.174-1.65 2.73-2.794 4.513-3.641a14.461 14.461 0 0 1 7.112-1.408c1.805.099 3.502.55 5.035 1.54 3.012 1.958 3.654 5.709 2.143 8.525-1.055 1.991-2.697 3.355-4.611 4.422a15.77 15.77 0 0 1-4.274 1.595Z" fill="#000"/><path class="fill" d="M62.368 40.865c-.054-1.155.892-2.299 2.35-2.42.771-.066 1.609.693 1.706 1.485.153 1.353-.554 2.618-2.066 2.948-.815.165-1.838-.649-1.957-1.485-.033-.187-.022-.352-.033-.528Z" fill="#000"/></svg>
